staking/ui/src/Staking/share.svg

<svg width="17" height="16" viewBox="0 0 17 16" fill="none" xmlns="http://www.w3.org/2000/svg">
<path d="M3.21548 13.2155C3.21548 13.3076 3.2901 13.3822 3.38215 13.3822L13.0488 13.3822C13.1409 13.3822 13.2155 13.3076 13.2155 13.2155L13.2155 9.3822L14.2155 9.3822L14.2155 13.2155C14.2155 13.8599 13.6932 14.3822 13.0488 14.3822L3.38215 14.3822C2.73782 14.3822 2.21548 13.8599 2.21548 13.2155L2.21548 9.3822L3.21548 9.3822L3.21548 9.88219L3.21548 13.2155Z" fill="#00D1FF"/>
<path d="M8.71553 11.8822L7.71553 11.8822L7.71553 3.53183L5.76913 5.47823L5.11014 4.72326L8.21553 1.6179L11.3209 4.72327L10.6619 5.47822L8.71553 3.53183L8.71553 11.8822Z" fill="#00D1FF"/>
</svg>

<svg width="17" height="16" fill="none" viewBox="0 0 17 16" xmlns="http://www.w3.org/2000/svg">
  <path fill="#fff" d="M3.215 13.216c0 .092.075.166.167.166h9.667a.167.167 0 0 0 .167-.166V9.382h1v3.834c0 .644-.523 1.166-1.167 1.166H3.382a1.167 1.167 0 0 1-1.167-1.166V9.382h1z"/>
  <path fill="#fff" d="M8.716 11.882h-1v-8.35L5.769 5.478l-.659-.755 3.106-3.105 3.105 3.105-.66.755-1.945-1.946z"/>
</svg>
